X:046
U: ~ = !turn!
%%topmargin 3cm
T:Daugherty's
B:Traditional Irish Fiddle Tunes. Randy Miller and Jack Perron.
Z:Transcribed by Ralph Palmer
S:Michael Coleman
R:Jig
L:1/8
M:6/8
K:EAeo
[G,2E2] d BGE | D2 B AFD | [G,2E2] d BGE | GFE e2 f |
gfe dcB | PA2 G FED | EFG ABc | [1 BGF E2 B :| [2 BGF E2 g |]
|: eBe gbg | dAd faf | eBe gbg | faf gbg |
faf gfe | fdB AGF | EFG ABc | [1 BGF E2 g :| [2 BGF E2 B :|]
